X: 26
T: Vive le noble roy de France
N: Derived from Com3046-Vive_le_noble_roy_de_France.krn
C: Loyset Comp\`ere
%%abc-version 2.0
%%abcx-abcm2ps-target-version 5.9.1 (29 Sep 2008)
%%abc-creator hum2abc beta
%%abcx-conversion-date 2019/02/16 20:28:09
%%abc-edited-by Jesse Rodin
%%abc-edited-by Megan K. Eagen 2013/11/29
%%abcx-initial-encoding-date 2013/11/29/
%%humdrum-veritas 3858444294
%%humdrum-veritas-data 1356944885
%%linebreak <none>
%%barnumbers 0
L: 1/4
M: 2/1
Q: 1/2=120
V: 1 clef=treble
V: 2 clef=treble-8
V: 3 clef=bass
K: F
[V:1] z2F2F3E | 
[V:2] z2F2F3G | 
[V:3] z2F,2F,3C, | 
[V:1] F2G2A2A2 | 
[V:2] A2B2c2c2 | 
[V:3] F,2E,D,C,2C,2 | 
[V:1] B4A2G2- | 
[V:2] d4c2B2- | 
[V:3] B,,2B,,2F,2G,2 | 
[V:1] GFF4E2 | 
[V:2] BAGFG4 | 
[V:3] E,2D,2C,4 | 
[V:1] F4A4- | 
[V:2] F4c4- | 
[V:3] C4F,4- | 
[V:1] A2A2B4 | 
[V:2] c2c2d4 | 
[V:3] F,2F,2B,,4 | 
[V:1] A4G2A2- | 
[V:2] c4B2c2- | 
[V:3] F,4G,2F,2- | 
[V:1] A2G4^F2 | 
[V:2] cBAGA4 | 
[V:3] F,G,E,2D,4 | 
[V:1] G3AB2A2- | 
[V:2] G4G2F2- | 
[V:3] z2G,2E,2F,2 | 
[V:1] A2GFE4- | 
[V:2] FGABc4- | 
[V:3] D,4C,4- | 
[V:1] E4z2C2 | 
[V:2] c4z2A2 | 
[V:3] C,4z2F,2 | 
[V:1] F2E2F2G2 | 
[V:2] A2G2A2B2 | 
[V:3] F,2C,2F,2B,,2 | 
[V:1] F2B3AA2- | 
[V:2] A2d3cBA | 
[V:3] F,2D,2F,4 | 
[V:1] A2G2A4 | 
[V:2] B4A4 | 
[V:3] G,4D,4 | 
[V:1] z2F2G2A2 | 
[V:2] z2A2B2A2 | 
[V:3] z2D,2G,2F,2 | 
[V:1] B4A4 | 
[V:2] d4d2c2- | 
[V:3] B,,3C,D,E,F,2 | 
[V:1] G4F2G2- | 
[V:2] cBAGA2G2 | 
[V:3] C,2E,2D,2E,2 | 
[V:1] GFEDC2F2- | 
[V:2] c3BA2F2 | 
[V:3] C,D,E,2F,2D,2 | 
[V:1] F2E2F4 | 
[V:2] G4F4 | 
[V:3] C,4F,4 | 
[V:1] z2F2G2A2 | 
[V:2] z2A2B2A2 | 
[V:3] z2D,2G,2F,2 | 
[V:1] B4A4 | 
[V:2] d4d2c2- | 
[V:3] B,,3C,D,E,F,2 | 
[V:1] G4F2G2- | 
[V:2] cBAGA2G2 | 
[V:3] C,2E,2D,2E,2 | 
[V:1] GFEDC2F2- | 
[V:2] c3BA2F2 | 
[V:3] C,D,E,2F,2D,2 | 
[V:1] F2E2F4 |]  
[V:2] G4F4 |]  
[V:3] C,4F,4 |]  



